src/assets/selectIcons/arma_10.svg

<svg xmlns="http://www.w3.org/2000/svg" viewBox="0 0 512 512"><path d="M0 0h512v512H0z"/><path fill="#fff" d="M317.096 24.062c-5.96-.065-11.61 1.097-16.576 3.46-2.844 1.352-5.54 3.216-7.788 5.53-.403-.21-.812-.41-1.222-.597-6.663-3.06-14.516-3.974-22.662-2.682-8.147 1.293-15.333 4.59-20.72 9.565-2.037 1.88-3.847 4.1-5.247 6.564-6.555-1.378-13.72-.858-20.835 1.502-7.83 2.598-14.383 7.017-18.893 12.8-4.183 5.363-6.702 12.536-5.017 19.657-5.716 2.527-10.943 6.68-15.26 12.136-3.33 4.207-5.778 8.764-7.252 13.445.43-.01.86-.034 1.29-.036 5.77-.025 11.553.883 17.1 2.524.763-1.585 1.745-3.205 2.977-4.762v-.002c3.106-3.925 6.97-6.464 9.924-7.422 1.108-.36 1.986-.517 2.682-.547 1.16-.05 1.814.252 2.19.55.605.48 1.38 1.646 1.128 4.743-.252 3.097-1.84 7.438-4.945 11.363-.387.49-.785.955-1.19 1.4 5.297 2.93 10.147 6.647 14.202 11.11.374-.437.743-.882 1.104-1.34 5.118-6.467 8.172-13.76 8.768-21.07.143-1.763.12-3.568-.077-5.362 2.33-.377 4.674-.952 7.014-1.73 7.83-2.597 14.386-7.016 18.896-12.798.905-1.16 1.727-2.407 2.45-3.718 5.426 1.51 11.403 1.79 17.548.814 8.146-1.293 15.332-4.59 20.72-9.562.604-.558 1.184-1.15 1.744-1.764 4.798 3.164 10.53 5.28 16.825 6.19 5.96.865 11.75.552 17.017-.905 2.08 6.164 5.987 11.935 11.37 16.81 3.32 3.005 6.922 5.413 10.68 7.165-.11.8-.19 1.6-.23 2.396-.383 7.323 1.673 14.957 5.885 22.05l.06.1c4.868-3.6 10.38-6.292 16.173-8.12-.257-.382-.515-.766-.756-1.172-2.557-4.305-3.55-8.82-3.387-11.922.006-.116.02-.21.027-.32 2.807-.41 5.552-1.292 8.045-2.735 2.478 1.582 5.233 4.258 7.352 7.826 1.12 1.886 1.923 3.805 2.477 5.635 2.363-.2 4.74-.28 7.112-.21 3.896.113 7.777.604 11.555 1.503-.662-5.44-2.587-10.924-5.672-16.118-3.44-5.793-7.886-10.495-13.003-13.75.444-3.374.175-6.83-.637-10.053-1.792-7.11-6.005-13.8-12.12-19.337-6.114-5.537-13.186-9.068-20.44-10.148-2.282-.34-4.653-.41-7-.162-1.52-3.352-3.822-6.33-6.493-8.73-5.455-4.9-12.682-8.1-20.846-9.284-2.04-.297-4.062-.456-6.048-.478zm-.153 18.022c1.167.004 2.38.09 3.62.27 4.954.717 9.087 2.782 11.398 4.86 2.312 2.075 2.555 3.455 2.444 4.217-.11.764-.733 2.02-3.54 3.355-2.804 1.335-7.355 2.14-12.31 1.422-4.954-.718-9.087-2.78-11.398-4.858-.85-.764-1.417-1.433-1.793-2.012l-.006-.045c-.135-.854-.334-1.677-.572-2.48.234-.77 1.02-1.87 3.467-3.036 2.104-1 5.19-1.706 8.69-1.693zm-41.66 5.15c3.5-.06 6.596.604 8.713 1.576 1.662.764 2.555 1.507 3.043 2.147.13.703.288 1.398.487 2.08-.184.796-.773 1.89-2.332 3.33-2.283 2.107-6.39 4.227-11.334 5.012-4.943.783-9.502.038-12.325-1.26-.24-.11-.442-.216-.65-.325-.668-1.71-1.55-3.27-2.604-4.674.336-.69.952-1.537 2.056-2.556 2.283-2.107 6.388-4.23 11.332-5.013 1.236-.195 2.448-.296 3.615-.316zm77.574 13.137c.555-.01 1.207.033 1.975.147 3.073.458 7.3 2.328 11.01 5.688s5.988 7.382 6.748 10.394c.112.443.187.84.246 1.21-2.575.352-5.115 1.17-7.498 2.586-.475.282-.927.583-1.367.897-2.415-.942-5.08-2.494-7.527-4.71-3.71-3.36-5.986-7.38-6.746-10.394-.76-3.013-.19-4.293.328-4.864.388-.428 1.17-.926 2.832-.955zm-116.752 2.82c1.502.038 2.853.23 3.977.538.545.15.997.31 1.408.477.656 1.55 1.496 2.988 2.48 4.312-.257.672-.706 1.484-1.478 2.473-1.91 2.45-5.618 5.21-10.37 6.785-4.75 1.577-9.372 1.582-12.368.76-2.996-.822-3.83-1.95-4.072-2.68-.243-.73-.25-2.132 1.662-4.582 1.91-2.45 5.62-5.208 10.37-6.785 2.97-.985 5.89-1.357 8.39-1.297zm-59.017 60.292c-3.486.012-6.73.665-9.764 1.637l-14.98 41.716c14.94-.53 30.592 4.598 43.185 15.844l15.087-42.016c-4.048-6.298-10.983-11.72-19.174-14.66-4.705-1.69-9.648-2.538-14.355-2.522zm218.244 5.137c-1.85.013-3.715.147-5.572.403-8.62 1.19-16.524 5.063-21.783 10.39l6.056 43.91c12.994-7.39 29.24-10.098 45.612-5.968l-6.1-44.224c-4.637-2.64-10.297-4.275-16.37-4.486-.61-.02-1.226-.03-1.843-.025zm-241.19 56.052c-2.94.025-5.81.362-8.552.974L94.25 328.62c15.76.55 31.143 6.467 43.572 14.772l51.006-142.04c-9.503-11.752-22.635-16.785-34.687-16.68zm249.655 8.53c-10.492.133-20.068 4.036-27.033 9.923l20.38 147.762c9.636-4.558 20.245-6.874 30.696-7.38 1.122-.054 2.244-.088 3.36-.1 3.868-.046 7.694.154 11.425.57l-20.27-146.973c-6.27-2.718-12.563-3.876-18.558-3.8zM97.385 347.1l4.88 25.26 21.296-16.432c-7.988-4.428-17.244-7.707-26.175-8.828zm335.185 14.537c-8.24.1-16.79 1.497-24.318 4.29l15.994 20.153 11.3-24.412c-.987-.026-1.978-.044-2.976-.03zm-350.523.966L69.453 397.68 86.31 384.67l-4.263-22.07zm43.723 14.357l-19.686 15.19 4.977 25.77 14.71-40.96zm321.664 1.88l-10.66 23.028 16.746 21.102-6.086-44.13zm-45.284 8.354l4.953 35.917 8.676-18.742-13.63-17.174zM90.13 404.46L71.75 418.64c4.486.312 9.058 1.267 13.574 2.89 3.167 1.136 6.146 2.543 8.906 4.183L90.13 404.46zm338.18 15.694l-11.498 24.832c4.772-2.43 10.122-4.116 15.85-4.906 3.81-.526 7.568-.622 11.203-.322l-15.556-19.604zm-358.726 16.42c-3.068-.114-5.913.254-8.322.996-4.818 1.484-7.593 4.06-8.737 7.244-1.144 3.186-.64 6.937 2.133 11.147 2.774 4.21 7.846 8.375 14.445 10.745 6.6 2.37 13.165 2.384 17.983.9 4.818-1.483 7.59-4.06 8.734-7.246 1.144-3.186.643-6.936-2.13-11.145-2.774-4.21-7.848-8.376-14.448-10.746-3.3-1.186-6.59-1.782-9.658-1.896zm370.627 21.03c-1.647-.03-3.35.066-5.087.306-6.947.958-12.77 3.986-16.352 7.533-3.58 3.548-4.846 7.116-4.383 10.47.462 3.352 2.646 6.444 7.054 8.89 4.41 2.445 10.834 3.784 17.78 2.826 6.947-.96 12.77-3.99 16.352-7.536 3.582-3.548 4.846-7.114 4.383-10.467-.462-3.353-2.644-6.445-7.053-8.89-3.306-1.835-7.747-3.047-12.69-3.134z"/></svg>

<?xml version="1.0" encoding="UTF-8" standalone="no"?>
<!DOCTYPE svg PUBLIC "-//W3C//DTD SVG 1.1//EN" "http://www.w3.org/Graphics/SVG/1.1/DTD/svg11.dtd">
<svg width="100%" height="100%" viewBox="0 0 512 512" version="1.1" xmlns="http://www.w3.org/2000/svg" xmlns:xlink="http://www.w3.org/1999/xlink" xml:space="preserve" xmlns:serif="http://www.serif.com/" style="fill-rule:evenodd;clip-rule:evenodd;stroke-linejoin:round;stroke-miterlimit:2;">
    <rect x="0" y="0" width="512" height="512" style="fill-rule:nonzero;"/>
    <path d="M317.096,24.062C311.136,23.997 305.486,25.159 300.52,27.522C297.676,28.874 294.98,30.738 292.732,33.052C292.329,32.842 291.92,32.642 291.51,32.455C284.847,29.395 276.994,28.481 268.848,29.773C260.701,31.066 253.515,34.363 248.128,39.338C246.091,41.218 244.281,43.438 242.881,45.902C236.326,44.524 229.161,45.044 222.046,47.404C214.216,50.002 207.663,54.421 203.153,60.204C198.97,65.567 196.451,72.74 198.136,79.861C192.42,82.388 187.193,86.541 182.876,91.997C179.546,96.204 177.098,100.761 175.624,105.442C176.054,105.432 176.484,105.408 176.914,105.406C182.684,105.381 188.467,106.289 194.014,107.93C194.777,106.345 195.759,104.725 196.991,103.168L196.991,103.166C200.097,99.241 203.961,96.702 206.915,95.744C208.023,95.384 208.901,95.227 209.597,95.197C210.757,95.147 211.411,95.449 211.787,95.747C212.392,96.227 213.167,97.393 212.915,100.49C212.663,103.587 211.075,107.928 207.97,111.853C207.583,112.343 207.185,112.808 206.78,113.253C212.077,116.183 216.927,119.9 220.982,124.363C221.356,123.926 221.725,123.481 222.086,123.023C227.204,116.556 230.258,109.263 230.854,101.953C230.997,100.19 230.974,98.385 230.777,96.591C233.107,96.214 235.451,95.639 237.791,94.861C245.621,92.264 252.177,87.845 256.687,82.063C257.592,80.903 258.414,79.656 259.137,78.345C264.563,79.855 270.54,80.135 276.685,79.159C284.831,77.866 292.017,74.569 297.405,69.597C298.009,69.039 298.589,68.447 299.149,67.833C303.947,70.997 309.679,73.113 315.974,74.023C321.934,74.888 327.724,74.575 332.991,73.118C335.071,79.282 338.978,85.053 344.361,89.928C347.681,92.933 351.283,95.341 355.041,97.093C354.931,97.893 354.851,98.693 354.811,99.489C354.428,106.812 356.484,114.446 360.696,121.539L360.756,121.639C365.624,118.039 371.136,115.347 376.929,113.519C376.672,113.137 376.414,112.753 376.173,112.347C373.616,108.042 372.623,103.527 372.786,100.425C372.792,100.309 372.806,100.215 372.813,100.105C375.62,99.695 378.365,98.813 380.858,97.37C383.336,98.952 386.091,101.628 388.21,105.196C389.33,107.082 390.133,109.001 390.687,110.831C393.05,110.631 395.427,110.551 397.799,110.621C401.695,110.734 405.576,111.225 409.354,112.124C408.692,106.684 406.767,101.2 403.682,96.006C400.242,90.213 395.796,85.511 390.679,82.256C391.123,78.882 390.854,75.426 390.042,72.203C388.25,65.093 384.037,58.403 377.922,52.866C371.808,47.329 364.736,43.798 357.482,42.718C355.2,42.378 352.829,42.308 350.482,42.556C348.962,39.204 346.66,36.226 343.989,33.826C338.534,28.926 331.307,25.726 323.143,24.542C321.103,24.245 319.081,24.086 317.095,24.064L317.096,24.062ZM316.943,42.084C318.11,42.088 319.323,42.174 320.563,42.354C325.517,43.071 329.65,45.136 331.961,47.214C334.273,49.289 334.516,50.669 334.405,51.431C334.295,52.195 333.672,53.451 330.865,54.786C328.061,56.121 323.51,56.926 318.555,56.208C313.601,55.49 309.468,53.428 307.157,51.35C306.307,50.586 305.74,49.917 305.364,49.338L305.358,49.293C305.223,48.439 305.024,47.616 304.786,46.813C305.02,46.043 305.806,44.943 308.253,43.777C310.357,42.777 313.443,42.071 316.943,42.084ZM275.283,47.234C278.783,47.174 281.879,47.838 283.996,48.81C285.658,49.574 286.551,50.317 287.039,50.957C287.169,51.66 287.327,52.355 287.526,53.037C287.342,53.833 286.753,54.927 285.194,56.367C282.911,58.474 278.804,60.594 273.86,61.379C268.917,62.162 264.358,61.417 261.535,60.119C261.295,60.009 261.093,59.903 260.885,59.794C260.217,58.084 259.335,56.524 258.281,55.12C258.617,54.43 259.233,53.583 260.337,52.564C262.62,50.457 266.725,48.334 271.669,47.551C272.905,47.356 274.117,47.255 275.284,47.235L275.283,47.234ZM352.857,60.371C353.412,60.361 354.064,60.404 354.832,60.518C357.905,60.976 362.132,62.846 365.842,66.206C369.552,69.566 371.83,73.588 372.59,76.6C372.702,77.043 372.777,77.44 372.836,77.81C370.261,78.162 367.721,78.98 365.338,80.396C364.863,80.678 364.411,80.979 363.971,81.293C361.556,80.351 358.891,78.799 356.444,76.583C352.734,73.223 350.458,69.203 349.698,66.189C348.938,63.176 349.508,61.896 350.026,61.325C350.414,60.897 351.196,60.399 352.858,60.37L352.857,60.371ZM236.105,63.191C237.607,63.229 238.958,63.421 240.082,63.729C240.627,63.879 241.079,64.039 241.49,64.206C242.146,65.756 242.986,67.194 243.97,68.518C243.713,69.19 243.264,70.002 242.492,70.991C240.582,73.441 236.874,76.201 232.122,77.776C227.372,79.353 222.75,79.358 219.754,78.536C216.758,77.714 215.924,76.586 215.682,75.856C215.439,75.126 215.432,73.724 217.344,71.274C219.254,68.824 222.964,66.066 227.714,64.489C230.684,63.504 233.604,63.132 236.104,63.192L236.105,63.191Z" style="fill:rgb(180,180,180);fill-rule:nonzero;"/>
    <path d="M154.142,184.672C166.194,184.567 179.325,189.6 188.828,201.352L137.822,343.392C125.393,335.087 110.01,329.17 94.25,328.62L145.59,185.646C148.332,185.034 151.202,184.697 154.142,184.672ZM403.797,193.202L403.797,193.204C409.792,193.128 416.085,194.286 422.355,197.004L442.625,343.977C438.894,343.561 435.068,343.361 431.2,343.407C430.084,343.419 428.962,343.453 427.84,343.507C417.389,344.013 406.78,346.329 397.144,350.887L376.764,203.125C383.729,197.238 393.305,193.335 403.797,193.202ZM69.584,436.573C72.652,436.688 75.942,437.283 79.242,438.469C85.842,440.839 90.916,445.005 93.69,449.215C96.463,453.424 96.964,457.174 95.82,460.36C94.676,463.546 91.904,466.123 87.086,467.606C82.268,469.09 75.703,469.076 69.103,466.706C62.504,464.336 57.432,460.171 54.658,455.961C51.885,451.751 51.381,448 52.525,444.814C53.669,441.63 56.444,439.054 61.262,437.57C63.671,436.828 66.516,436.46 69.584,436.573ZM440.211,457.604L440.215,457.602C445.158,457.689 449.599,458.901 452.905,460.736C457.314,463.181 459.496,466.273 459.958,469.626C460.421,472.979 459.157,476.545 455.575,480.093C451.993,483.639 446.17,486.669 439.223,487.629C432.277,488.587 425.853,487.248 421.443,484.803C417.035,482.357 414.851,479.265 414.389,475.913C413.926,472.559 415.192,468.991 418.772,465.443C422.354,461.896 428.177,458.868 435.124,457.91C436.861,457.67 438.564,457.574 440.211,457.604Z" style="fill:rgb(118,179,88);"/>
    <path d="M82.047,362.603L86.31,384.67L69.453,397.68L82.047,362.603ZM177.088,123.483C181.795,123.467 186.737,124.314 191.442,126.004C199.633,128.944 206.568,134.366 210.616,140.664L195.529,182.68C182.936,171.434 167.284,166.306 152.344,166.836L167.324,125.12C170.358,124.148 173.602,123.495 177.088,123.483ZM395.332,128.62C395.949,128.615 396.565,128.625 397.175,128.645C403.248,128.856 408.908,130.491 413.545,133.131L419.645,177.355C403.273,173.225 387.027,175.933 374.033,183.323L367.977,139.413C373.236,134.086 381.14,130.213 389.76,129.023C391.617,128.767 393.482,128.633 395.332,128.62ZM97.386,347.1C106.317,348.221 115.573,351.5 123.561,355.928L102.265,372.36L97.386,347.1ZM432.57,361.638C433.568,361.624 434.559,361.642 435.546,361.668L424.246,386.08L408.252,365.927C415.78,363.134 424.33,361.738 432.57,361.638ZM125.77,376.96L111.061,417.92L106.084,392.15L125.77,376.96ZM447.434,378.84L453.52,422.97L436.774,401.868L447.434,378.84ZM402.15,387.195L415.779,404.369L407.103,423.111L402.15,387.195ZM90.13,404.46L94.23,425.713C91.47,424.073 88.491,422.666 85.324,421.53C80.808,419.907 76.236,418.952 71.75,418.64L90.13,404.46ZM428.31,420.154L443.865,439.758C440.23,439.458 436.472,439.554 432.662,440.08C426.934,440.87 421.584,442.556 416.812,444.986L428.31,420.154Z" style="fill:rgb(112,125,25);"/>
</svg>
